X: 8451
T: Cradling Arms Of Cruachan, The
R: reel
M: 4/4
K: Dmajor
|:AA FD3 EE|DF/ (A2 A/) F/E/D|G3 A B/c/d|c2 d2 e2 (f2|
f2) ed d(A2|A) a ba gf ed||c2 d2 e2 (f2|f2) ed d(A2|A)G GF G3 A|
B/c/d c2 d2 e2|fa fd Ad eg|ec Ac eg ec|1 Ac d4 z2:|2 Ac d3 Ade||
f4 ed d (A|A2) GF G2 G A|B/c/d c2 d2 e2|fa3 fe ed|d3a ba gf|
ed c2 d2 .e A|f4 ed d (A|A2) GF G2 G A|B/c/d c2 d2 e2|
fa fd Ad eg|ec Ac eg ec|1 Ac d3 Ade:|2 Ac D4 z2||

